X:132
T: WIR KINDER WIR SCHMECKEN DER FREUDEN RECHT VIEL
N: F0253
O: Europa, Mitteleuropa, Deutschland
R: Jugend - Lied, Spiel; Belehrung
M: 3/8
L: 1/16
K: A
A | A2c2ze | G2GA
Bc | d2dcde | c2z3
A | e2c2zA | F2d2z
B | G2GABc | A2z2
cB | B2e^dec | B2e^d
ec | BcBGAF | E2z2
Bc | d2dcdc | B2BA
BA | G2GABc | A2z3

@@@ Tune index: 5563
